X:17
T:Jesus Born in Bethn'y
T:A Christmas Jig
C:traditional, Virginia 1932
N:transcribed by Ishmael from Bright Day Star, recorded by The Baltimore Consort 1994
Q:1/2=108
M:4/4
L:1/4
K:Gmix
ccAA|d2B2|AcBA|G>A B/A/G|ccAA|d2BG|AcBA|G4:|
ddgf|g3d|ddfe|d4|ccAA|d2BG|AcBA|G4:|
